X:1
T:20 Mélodies
T:La Guerrière
T:Ballade héroïque
T:20 Mélodies
T:11. La guerrière
T:Augusta Holmès
T:(Holmès)
T:OpenScore (CC0)
T:OpenScore (CC0)
T:OpenScore (CC0)
T:OpenScore (CC0)
C:Holmès, Augusta Mary Anne
Z:(Holmès)
Z:OpenScore (CC0)
%%score 1 { ( 2 4 ) | ( 3 5 ) }
L:1/8
Q:1/4=92
M:4/4
K:D
V:1 treble nm="CHANT"
V:2 treble nm="PIANO"
V:4 treble 
V:3 bass 
V:5 bass 
V:1
"^Andante. (Mouvement de Marche Funèbre)" z8 | z8 | z8 | z8 | z8 | z8 | z8 | z8 | z8 | %9
w: |||||||||
"^CHANT" z2!p! B3/2 d/ c2 c2 | z2 (3B c d c2 c2 |!f! z2 (3^d e f e2!<(! =d z/ B/ | F2 F2!<)! f4 | %13
w: Sous un chê- ne,|dans la clairiè- * re,|Dort la guerriè- * re Au|cas- que d'or; |
 z2!f! B c/ d/ c2- c z | z2 B c/ d/ e z!f! e3/2 f/ | ^d7/2 d/ e2 =d3/2 B/ | f4 F4 | %17
w: Mieux qu'A- ma- dis _|et Ga- la- or, De hauts|faits elle est cou- tu-|miè- re.|
 z2 z z/!p! B/ B2 B3/2 B/ | B2 B3/2 B/ B4 | B2 z2 z2!f! =d3/2 =c/ | B2 A3/2 G/ B3 B | B4- B2 z2 | %22
w: Mais l'aube a ver-|sé la lumiè- *|re.. Pour- quoi|donc som- meil- ler en-|cor,  _|
 z4 z2 (3B =c d | e2 e2 z4 | z z/ B/ B3/2 B/ B4 | z4 z z/!p! G/ =c c | z4 z =c/ c/ c3/2 c/ | %27
w: Bel- le guer-|riè- re|Au cas- que d'or?|Dort- el- le?|Dans sa main cris-|
 =c2 c z z2!f! _d _A/ d/ | =f2 =c2 z2!ff! ^c c/ c/ | g2 z2 z2 z!p! _B | _B2 B3/2 B/ B2 B3/2 B/ | %31
w: pé- e, O grande é-|pé- e, Qui te bri-|sa? Un|tris- te cor- beau cro- as-|
 _B4- B z B3/2 B/ |!<(! =B3 B B2 B3/2 B/!<)! | ^d4 d/!f! z/"^très accentué" !^!d !^!d !^!d | %34
w: sa : _ « Dans le|sang fi- nit l'é- po-|pé- e; A dix contre|
 !^!^d4 d z!f! (3!^!d !^!d3/2 !^!d/ |!ff! (f4 F2) z2 | %36
w: u- ne ils l'ont frap-|pé- e,|
!ff!"^à volonté" f2[Q:1/4=86] c- (3c/ ^A/ c/[Q:1/4=80] ^d2 c3/2 c/ | f6- f !fermata!z | %38
w: Cel- le * que la gloi- re ber-|ça !!  _|
"^a Tempo."[Q:1/4=92] z2!p! B c/ d/ c2- c z | z2 B c/ d/ c2 c2 | z2 (3^d e f e2 =d2 | %41
w: Et pour tou- jours,   _|dans la clai- riè- re,|Dort la guer- riè- re|
 z z/ F/ F3/2 F/ F2- F z | z4 z2 c d/ e/ | d2- d z z2 z/!f! c/ d/ e/ | ^d2 z2 z2!<(! =d B/ d/!<)! | %45
w: Au cas- que d'or!! »  _|Som- bre té-|moin, _ ré- ponds en-|cor! Qui l'a bles-|
"^stretto"[Q:1/4=100] f z/!ff! f/ !^!g2 !fermata!z2!mf! z"^(avec une expression sinistre)" G | %46
w: sée au cœur ? « Son|
"^a Tempo."[Q:1/4=92]!<(! (F8!<)! | =c2) z2 z4 | z8 | !fermata!z8 |] %50
w: frè-|re ! »|||
V:2
 z4 z2 z z/!pp! (B,/ | [F,DF]) z [F,DF] z!>(! ((([G,B,C-G]2 [F,^A,CF])))!>)! z/!p! (B,/ | %2
 [F,DF]) z [F,DF] z!>(! ((([G,B,C-G]2 [F,^A,CF])))!>)! z/!f! (F/ | %3
 [B,^DB]) z [B,FA] z!>(! (([B,-EG]2 [B,=DF]))!>)!z/!pp![B,CE]/ | %4
 [B,DF] z [B,DF] z!p!!>(! ([^A,-DF-]2 [A,CF])!>)! z/!pp! (B,/ | %5
 [F,DF]) z [F,DF] z!>(! ((([G,B,C-G]2 [F,^A,CF])))!>)! z/!pp! (B,/ | %6
 [F,DF]) z [F,DF] z!f!!>(! ((([G,B,C-G]2 [F,^A,CF])))!>)! z/!f! (F/ | %7
!<(! [^DB^d]) z [DBd]!<)! z!f!!>(! (([EB-e]2 [=DB=d]))!>)!z/!p![B,DB]/ | %8
 !^![B,DF]4 !^![^A,CF]2- [A,CF] z/!pp! (B,/ | %9
 [F,DF]) z [F,DF] z!>(! ((([G,B,C-G]2 [F,^A,CF])))!>)! z/!pp! (B,/ | %10
 [F,DF]) z [F,DF] z!>(! ((([G,B,C-G]2!>)! [F,^A,CF]))) z/ (F/ | %11
!f! [B,^DB]) z [B,FA] z!>(! (([B,-EG]2!>)! [B,=DF]))z/[B,CE]/ | %12
 [B,DF] z [B,DF] z!>(! ([^A,-DF-]2 [A,CF])!>)! z/!pp! (B,/ | %13
 [F,DF]) z [F,DF] z!>(! ((([G,B,C-G]2 [F,^A,CF])))!>)! z/ (B,/ | %14
 [F,DF]) z [F,DF] z!>(! ((([G,B,C-G]2 [F,^A,CF])))!>)! z/!f! (F/ | %15
 [^DB^d]) z [DBd] z!f!!>(! (([EB-e]2!>)! [=DB=d]))z/!p![B,D^GB]/ | F4!>(! F2-!>)! F x | %17
!<(! ([B^df]2 [Bdf]2!<)!!mf!!>(! [Bda]2 [Beg]>[Bdf])!>)! | %18
!<(! ([B^df]2 [Bdf]2!<)!!mf!!>(! [Bda]2 [Beg]>[Bdf])!>)! | %19
!<(! ([B^df]2 [Bdb]2!<)!!f!!>(! [ege']2 [=da=d']>[=ca=c']!>)! | %20
!p! [Bgb]2 [=cea]>[Beg] (([B-eg]2 [B^df]))) z/[K:bass]"_M.D."[I:staff +1] g/ | %21
[I:staff -1][K:treble] z2"^M.G."!<(! [^GBe]2!<)! [Bd^g]2 z2 | z2!<(! [^GBe]2!<)! [Bd^g]2 z2 | %23
"^M.D.""_dim." [E=c] z [EB] z [EA] z [EG]>[EF] |!>(! ([EG]4 [^DF]4)!>)! | %25
!pp! (3[B,E^G]2 [GB]/[GB]/ [GBe]>[GB] [=G_B=c]4 | %26
!pp! (3[=B,E^G=B]2 [GB]/[GB]/ [GBe]>[GB] [=G_B=c]4 |!f! (3[_A=c]2 [Ac]/[Ac]/ [Ac=f]>[Ac] [A_c_d]4 | %28
!f! (3[_A=c]2 [Ac]/[Ac]/ [Ac=f]>[Ac] [^G=B^c]4 |!ff! [=G_B^c=g]2 z2 z4 | z8 | z8 | %32
!p! [=B,EG=B]2 z2 z4 | !///-!!^!^d c !///-!!^!e =d !///-!!^!^d c !///-!!^!e =d | %34
!mp!"_cresc." !///-!!^!^d/c/ !///-!!^!e/=d/ !///-!!^!^d/c/ !///-!!^!e/d/ (3!^![^cd]!^![=de]!^![^cd]!f! (3!^![=de]!^![^cd]!^![=de] | %35
!ff! !///-!!^![=cf]2 F2 !///-![cf] F- [Fcf] z | %36
!ff!"_allarg." [^Acf^a]2- [Acfa] z !^![B^dfb]2 !^![Bc^eb]2 | %37
!ff!"_dim." !^![^Acf^a]2 z z/ [F,F]/4[F,F]/4 [F,F]2- [F,F] !fermata!z/!pp! (B,/ | %38
!mp! [F,DF]) z [F,DF] z!>(! ((([G,B,C-G]2 [F,^A,CF])))!>)! z/!pp! (B,/ | %39
 [F,DF]) z [F,DF] z!>(! ((([G,B,C-G]2 [F,^A,CF])))!>)! z/ (F/ | %40
!f! [B,^DB]) z [B,FA] z!>(! (([B,-EG]2 [B,=DF]))!>)!z/!p![B,CE]/ | %41
 [B,DF] z [B,DF] z!>(! ((([^A,DF]2 [A,CF])))!>)! z/!pp! (B,/ | %42
 [F,DF]) z [F,DF] z!>(! ((([G,B,C-G]2 [F,^A,CF])))!>)! z/ (B,/ | %43
!f! [F,DF]) z [F,DF] z!>(! ((([G,B,C-G]2 [F,^A,CF])))!>)! z/!f! (F/ | %44
!<(! [^DB^d]) z [DBd]!<)! z!f! (([EB-e]2 [=DB=d]))z/[B,DB]/ | %45
"^stretto" !^![F,B,DF]2!ff! !^![G,B,CG] !fermata!z z4 |"^a Tempo." z6 z2 | %47
!ff!!>(! (!^![=c^df=c']8!>)! |!p! [B=dfb]8-) | [Bdfb]2 z2 !fermata!z4 |] %50
V:3
 z4 z2 z z/ (B,,/ | B,,,) z [B,,,B,,] z({E,,,E,,-)} (([E,,,E,,]2 [F,,,F,,])) z/ (B,,/ | %2
 B,,,) z [B,,,B,,] z({E,,,E,,-)} (([E,,,E,,]2 [F,,,F,,])) z/ (F,,/ | %3
 B,,,) z [^D,,,^D,,] z (([E,,,E,,]2 [F,,,F,,]))z/[G,,,G,,]/ | %4
 [F,,,F,,] z [F,,,F,,] z({F,,,F,,-)} ([F,,,F,,]2 F,,) z/ (B,,/ | %5
 B,,,) z [B,,,B,,] z({E,,,E,,-)} (([E,,,E,,]2 [F,,,F,,])) z/ (B,,/ | %6
 B,,,) z [B,,,B,,] z({E,,,E,,-)} (([E,,,E,,]2 [F,,,F,,])) z/ (F,,/ | %7
 B,,,) z [A,,,A,,] z (([G,,,G,,]2 [F,,,F,,]))z/[^E,,,^E,,]/ | [F,,,F,,]2 z2 [F,,,F,,]2 z z/ (B,,/ | %9
 B,,,) z [B,,,B,,] z({E,,,E,,-)} (([E,,,E,,]2 [F,,,F,,])) z/ (B,,/ | %10
 B,,,) z [B,,,B,,] z({E,,,E,,-)} (([E,,,E,,]2 [F,,,F,,])) z/ (F,,/ | %11
 B,,,) z [^D,,,^D,,] z (([E,,,E,,]2 [F,,,F,,]))z/[G,,,G,,]/ | %12
 [F,,,F,,] z [F,,,F,,] z({F,,,F,,-)} ([F,,,F,,]2 F,,) z/ (B,,/ | %13
 B,,,) z [B,,,B,,] z({E,,,E,,-)} (([E,,,E,,]2 [F,,,F,,])) z/ (B,,/ | %14
 B,,,) z [B,,,B,,] z({E,,,E,,-)} (([E,,,E,,]2 [F,,,F,,])) z/ (F,,/ | %15
 B,,,) z [A,,,A,,] z (([G,,,G,,]2 [F,,,F,,]))z/[^E,,,^E,,]/ | %16
 [F,,,F,,] z [F,,,F,,] z({F,,,F,,-)} [F,,,F,,] z [F,,,F,,] z | %17
"_una corda"!ped! z2 ([B,^DF]2 [B,FA]2!ped-up! [B,EG]) z | %18
!ped! z2 ([B,^DF]2 [B,FA]2 [B,EG])!ped-up! z | [B,,,B,,]2[K:treble] ([A,FA]2 [G,EG]2 [F,F]>[F,F] | %20
 [G,DG]2 [A,=CEA]>[B,EG] (([B,-EG]2 [B,^DF]))) z | %21
[K:bass]"_M. G.""^con\nduolo\n" D2 (3^G,B,D!>(! (=F2 E>)D!>)! | ^G2 (3^G,B,D!>(! (=F2 E>)D!>)! | %23
 !tenuto!=C2 !tenuto!B,2 !tenuto!A,2 G,>A, | %24
 [B,,,B,,] z [B,,,B,,] z({B,,,B,,-)} [B,,,B,,] z [B,,,B,,] z | %25
"_una corda"!ped! (3z2 [B,E]/[B,E]/ [B,E]>[B,E]!ped-up! [=CE]4 | %26
!ped! (3z2 [B,E]/[B,E]/ [B,E]>[B,E]!ped-up! [=CE]4 | %27
!ped! (3z2 [=C=F]/[CF]/ [CF]>[CF]!ped-up! [_DF]4 | (3z2 [=C=F]/[CF]/ [CF]>[CF] [^C^E]4 | %29
!p!!ped!!>(! !//-!E,,,2 E,,2!pp! !//-!E,,,2 E,,2!ped-up!!>)! | %30
!p!"^dim."!8vb(! ([_E,,,_E,,]4 [D,,,D,,]4 | [_D,,,_D,,]4 [=C,,,=C,,]4 | %32
 [=B,,,,=B,,,]2)!8vb)! z2 z4 | %33
[K:treble] !///-!!^![^D^^F] ^A !///-!!^![=DE] ^G !///-!!^![^DF] A !///-!!^![=DE] G | %34
 !///-!!^![^D^^F]/^A/ !///-!!^![=DE]/^G/ !///-!!^![^DF]/A/ !///-!!^![=DE]/G/ (3!^![^D^^F^A]!^![=DE^G]!^![^DFA] (3!^![=DEG]!^![^DFA]!^![=DEG] | %35
[K:bass]!ped!!8vb(! !///-!!^!D,,,2 D,,2 !///-!D,,, D,, D,,,!ped-up! z!8vb)! | %36
!ped!{/[C,,,C,,]} [CF]2- [CF] z!ped-up! !^![C^DF^G]2 !^![C^EG]2 | %37
[K:bass] !///-!F,,,2 F,,2 !///-!F,,, F,, F,,, !fermata!z/ (B,,/ | %38
 B,,,) z [B,,,B,,] z({E,,,E,,-)} (([E,,,E,,]2 [F,,,F,,])) z/ (B,,/ | %39
 B,,,) z [B,,,B,,] z({E,,,E,,-)} (([E,,,E,,]2 [F,,,F,,])) z/ (F,,/ | %40
 B,,,) z [^D,,,^D,,] z (([E,,,E,,]2 [F,,,F,,]))z/[G,,,G,,]/ | %41
 [F,,,F,,] z [F,,,F,,] z({F,,,F,,-)} ([F,,,F,,]2 F,,) z/ (B,,/ | %42
 B,,,) z [B,,,B,,] z({E,,,E,,-)} (([E,,,E,,]2 [F,,,F,,])) z/ (B,,/ | %43
 B,,,) z [B,,,B,,] z({E,,,E,,-)} (([E,,,E,,]2 [F,,,F,,])) z/ (F,,/ | %44
 B,,,) z [A,,,A,,] z (([G,,,G,,]2 [F,,,F,,]))z/[^E,,,^E,,]/ | %45
 !^![F,,,F,,]2 !^![E,,,E,,] !fermata!z z4 | z4!p! F,2 x2 |!ped!{/[B,,,,B,,,]} (!^![=C^DFA]8 | %48
 [B,=DFB]2-) [B,DFB]!ped-up! z[K:bass]!pp! [B,,,B,,] z z2 | [B,,,B,,]2 z2 !fermata!z4 |] %50
V:4
 x8 | x8 | x8 | x8 | x8 | x8 | x8 | x8 | x8 | x8 | x8 | x8 | x8 | x8 | x8 | x8 | %16
 [B,D]2 z2 [^A,C]2- [A,C] z/!p! F/ | x8 | x8 | x8 | x15/2[K:bass] x/ |[K:treble] x8 | x8 | x8 | %24
 B,8 | x8 | x8 | x8 | x8 | x8 | x8 | x8 | x8 | x8 | x8 | x8 | x8 | x8 | x8 | x8 | x8 | x8 | x8 | %43
 x8 | x8 | x8 | x8 | x8 | x8 | x8 |] %50
V:5
 x8 | x8 | x8 | x8 | x8 | x8 | x8 | x8 | x8 | x8 | x8 | x8 | x8 | x8 | x8 | x8 | x8 | %17
 [B,,,B,,]4- [B,,,B,,]2 z2 | [B,,,B,,]4- [B,,,B,,]2 z2 | x2[K:treble] x6 | x8 | %21
[K:bass] [E,,,E,,]4- [E,,,E,,]2 z2 | [E,,,E,,]4- [E,,,E,,]2 z2 | %23
 [A,,,A,,] z [G,,,G,,] z [F,,,F,,] z [E,,,E,,]>[=C,,=C,] | x8 | [E,,,E,,]2- [E,,,E,,] z z4 | %26
 [E,,,E,,]2- [E,,,E,,] z z4 | [=F,,,=F,,]2- [F,,,F,,] z z4 | [=F,,,=F,,]2- [F,,,F,,] z z4 | x8 | %30
!8vb(! x8 | x8 | x2!8vb)! x6 |[K:treble] x8 | x8 |[K:bass]!8vb(! x8!8vb)! | x8 |[K:bass] x8 | x8 | %39
 x8 | x8 | x8 | x8 | x8 | x8 | x8 | x4 [F,,,F,,]2 z2 | x8 | x4[K:bass] x4 | x8 |] %50

